X: 5
T: Oak Tree, The
Z: Michael Eskin
S: https://thesession.org/tunes/212#setting50399
R: reel
M: 4/4
L: 1/8
K: Dmaj
|:FDAD FDAD|FAAF GEFD|A,2 A,G, A,B,=CA,|A,G,A,B, =CDEG|
FDAD FDAD|FAAF GFED|(3Bcd ef gece|1 d2dc d2AG:|2 d2 dc d2eg||
|:fBBB fa^ge|fece faed|cAeA fAeA|cAea fece|
fBBB fa^ge|fece faec|ABce a^gae|1 faed cAce:|2 faed cABc||
|:d2fd ddfd|c2ec ccec|d2fd ddfg|afge dcBA|
d2fd Adfd|c2ec Acec|d2fd Adfg|1 afge dcBA:|2 afge d3z||

